X:1
T:Distant Worlds II Ronfaure
T:Distant Worlds II Ronfaure
T:Nobuo Uematsu Arr. Distant Worlds Tr. Zac Rawls 
%%score { ( 1 3 6 ) | ( 2 4 5 ) }
L:1/8
Q:1/4=80
M:2/4
K:G
V:1 treble nm="Piano"
V:3 treble 
V:6 treble 
V:2 bass 
V:4 bass 
V:5 bass 
V:1
S z4 | [EG]2 C/D/F/A/ | B/c/B/c/ B/c/[Bd]/c/ | c3/2 z2 z/ | [Ee]>[Dd] [Ee][Ff] | %5
[M:4/4] [Gg]2 [Ee][Gg] [Ff]2 [Dd]2 | [Ee]2 [Gg][Aa] [Bb]>[Aa] [Bb][cc'] | %7
 [dd']2 [cc'][Bb] [Aa]2 [cc']2 | [Bb]4 [Ee]>[Dd] [Ee][Ff] | [Gg]2 [Ee][Gg] [Ff]2 [Dd]2 | %10
 [Ee]2 [Dd][Cc] [B,B]>[A,A] [B,B][Cc] | [A,A][Dd][Ff][Gg] [Ee]2 [Ff]/[Ee]/[Dd] | %12
 [Ee]4 [EGB]2 [DFA]/[CEG]/[B,DF] | [EGB]4"^:31" [EG]F/G/ [EG][EG] | %14
 [EG]F/G/ [EG][EG] [EG]F/G/ [EG]F/G/ | [CGA]G/F/ GE [EG]F/G/ [EG][EG] | %16
 [EG][DF]/[EG]/ [CE][CE] [DF][CE]/[DF]/ [B,D][B,DF] | %17
 [CE]2 [CEG][DFA]/[DG]/ [DGB][CEA]/[DFA]/ [DGB][DAc] | [DF][CE][B,D][G,B,] [CFA]2 [Fc]2 | %19
 [EG]F/G/ E/F/G/[CA]/"^:48" [EG]/G/F/G/ [EG][EG] | %20
 [EG][DF]/[EG]/ [CE][CE] [DF][CE]/[DF]/ [B,D][B,DF] | [CE]2 [CEG][CEG] [GB]G/A/ Bc/d/ | %22
 [B,D]D/E/ [DF]E/F/ [EG]/F/E F/E/[B,D] |"^1:00" [EG][DF] [B,E]2 z4!dacoda! || z4 z E F/E/D | %25
 GF/G/ E2 z E F/E/D | [GB]F/G/ d2 z e f/e/d | GF/G/ E z2 z/ [EG]/ F/[EG]/[DF] | %28
 [EGBe]2 z2 z E/E/ EE |"_1:17" [CE]/D/[CE]/D/ C/B,/[DF] [B,G]2 [DG]2 | %30
 z [DFd] [B,Dd]/[^CEe]/[DFf]/[E^G^g]/ [FA^c'][=FG=f] .[C^F^c]2 | %31
[K:G]"^1:22" .[^ce^g][ceg]/[B^df]/ [ceg][cf^a^c'] [Bdgb]3 z | %32
 z [EGB][EGB][EGB] z [GB] [=FA]/[GB]/[FAc] |"^1:28" [Dcee']4 [^Ad=f][=FAd][DFA][CF=A] | %34
 z2 [B,D][A,C]/[B,D]/ [CE]2 [DF][CE]/[DF]/ | [E^Ge]2 [EGBe][EG^df] [EGdf]2 [EG=d^g]2 | %36
[K:C]"^1:37" [CEAcega]2 [CEAea][DGBdgb] [CFAcgc']2 [CFAf][CEFAc] | %37
 [DGBdgbb']2 [DGd]2 [D=FAca]2 [CAcgc'][DFBd] | [CEGc]>[DFB] [CEc][DFAd] [DBd] z [CFAc][EGB] | %39
 [DFdf]2 [DFBff']2 [CEAee']2 d2 | [CEAea]>[Gdg] [Aeaa'][DFGBdgbb'] [CFAcfga]2 [CDFA][CEFAc] | %41
 [DGBdg]2 [DGBd]2 [DFAdaa']2 [CG][CF] | [CEAe]>[B,Dd] [CEc][CFd] [DGe]2 [DEGBdg][CEAca] | %43
 [CFAcfaf']2 [DGBdbd']/[CAcac']/[B,GBgb]/ z/ [CEAa] z z2 |"^2:00" [Aca]2 [Gd]/[ca]/[Bg] [ca]2 z2 | %45
 z3/2 [CEA]/ [DGB]/[CEA]/[B,DG] [CEA] z z2 | z"^Oob?""^rit."[Q:1/4=75] E A[Q:1/4=70]B/c/ e4 | %47
"^2:10"[Q:1/4=80] ([ac']>[bd'] [c'e'][d'f'] [e'g']2) ([d'f'][c'e'] | [bd']6) z2 | %49
 ([ac']>[gb] [ac'][bd'] [c'e']2) ([bd'][ac'] | [gb]6) z2 | z2 ([FAa]2 [Acc']2 [dff']2 | %52
 [cee']>)([Acc'] [EGg]2) [cec']3/4[Bdb]3/4[cec']/ [Bdb]3/4[cec']3/4[dfd']/ | A4 B2 c2 | %54
 de e4 z"^rit." e' |[K:A] d'[Q:1/4=70]a[Q:1/4=65]f[Q:1/4=60]d B2 z2 | %56
[Q:1/4=70]"^2:42" [cgc']>[Bfb] [cgc'][dad'] [A,EAea]2 [DAdad'][CGcgc'] | [B,EBebe']6 [G,CGcgc']2 | %58
 [Ada]>[Gcg] [Ada][Beb] [cfc']2 [Beb][Ada] | [GBg]2 [FAf]2 [EGe]2 [DFd]2 | %60
 [DFA]2 [A,D]2 [DF]2 [FAd]2 | [CEc]>[CEA] [A,CE]6 | z2 [GBd]2 [EGB]2 [GBd]2 | %63
 [Ff]3 [Ff]"_dim." [=F=f]4 | [B,F]>[A,E] [B,F][CG] [DA]4- | [DA]8 | %66
 [Ec]>[^DB] [Ec][F^d] [Ge]2 [Ec][Ge] | [^DF]4 .E.=D.E.D | .=C.E.A.=G .F.D.A,.B, | %69
[K:G] .C.E.G.E z2 z2!D.S.! ||O[Q:1/4=80] z4 z E F/E/D | GF/G/ E2 z E F/E/D | %72
 [GB]F/G/ [FGBd]2 z e f/e/d | [GB]F/G/ E z z z/ [Ge]/ [Af]/[Ge]/[Fd] | %74
[Q:1/4=75] z z/ [eg]/ [fa]/[eg]/[df][Q:1/4=70] z [Gege'] [DAff']/[Gee']/[Fdfd'] | %75
 z !fermata![EGBeb]7 |] %76
V:2
 [E,,B,,E,G,B,]2 [E,,B,,E,G,B,][E,,B,,E,G,B,] | [E,,B,,E,G,B,]2 [E,,B,,E,G,B,][E,,B,,E,G,B,] | %2
 [E,,B,,E,G,B,]2 [E,,B,,E,G,B,][E,,B,,E,G,B,] | [E,,B,,E,G,B,]2 [E,,B,,E,G,B,][E,,B,,E,G,B,] | %4
 [E,,B,,E,G,B,]2 [E,,B,,E,G,B,][E,,B,,E,G,B,] | %5
[M:4/4] [E,,E,G,C]2 [E,,E,G,C][E,,E,G,C] [E,,D,F,A,]2 [E,,D,F,A,][E,,D,F,A,] | %6
 [E,,C,E,G,]2 [E,,C,E,G,][E,,C,E,G,] [G,,D,G,B,]2 [G,,D,G,B,][G,,D,G,B,] | %7
 [G,,F,A,D]2 [G,,C,E,C][G,,B,,D,B,] [A,,^D,F,A,]2 [G,,C,E,C][F,,A,,=D,A,] | %8
 [G,,C,G,B,]B,,D,C, [E,,B,,E,G,B,]2 [E,,B,,E,G,B,][E,,B,,E,G,B,] | %9
 [E,,C,E,G,B,]2 [E,,C,E,][E,,C,G,] [E,,D,F,B,]2 [E,,D,F,B,]2 | %10
 [G,,C,G,B,]2 [G,,C,G,B,][G,,C,G,B,] [E,,B,,G,B,]2 [E,,B,,G,B,][E,,B,,G,B,] | %11
 [E,,A,,D,F,A,]2 [E,,A,,D,F,A,][E,,A,,D,F,A,] [E,,B,,E,G,]2 [D,,A,,F,A,]2 | %12
 [E,,B,,E,G,B,]2 z2 [B,,E,G,B,]2 [D,F,A,]/[C,E,G,]/[B,,D,F,] | %13
 [E,G,B,]4 [E,,B,,B,]2 [B,,G,B,][B,,G,B,] | %14
 [E,,B,,B,]2 [B,,G,B,][B,,G,B,] [E,,B,,B,]2 [E,,B,,E,G,]2 | %15
 [E,,C,E,G,]2 [E,,B,,G,B,][E,,B,,G,B,] [E,,B,,G,B,]2 [E,,B,,G,B,][E,,B,,G,B,] | %16
 [C,,G,,C,G,]2 [C,,E,,E,G,][C,,E,,E,G,] [B,,,B,,D,F,A,]2 [B,,D,F,A,][B,,D,F,A,] | %17
 [C,,G,,C,E,G,]2 [C,E,G,][D,F,A,] [G,,D,G,B,]2 [G,,D,G,B,][G,,D,A,C] | %18
 [D,,D,A,]2 [D,F,C][B,,D,B,] [C,F,A,]2 [F,A,C]2 | %19
 [E,,B,,E,G,B,]2 [C,E,G,][C,E,G,] [E,,B,,G,B,]2 [E,,B,,E,G,B,][E,,B,,E,G,B,] | %20
 [C,,G,,G,]2 [G,,C,E,][C,E,G,] [B,,,B,,D,F,A,]2 [B,,D,F,A,]2 | %21
 [C,,G,,G,]2 [G,,C,G,][G,,G,] [G,,D,B,]2 [G,,D,G,B,][G,B,] | %22
 [F,,D,A,]2 [D,,D,F,][G,A,] [E,,G,,E,G,]2 [D,,D,F,A,]2 | [E,,B,,G,B,]A, E,2 [E,B,]2 [E,B,][E,B,] || %24
 [D,E,B,]2 [E,B,][E,B,] [C,E,B,]2 [D,F,A,B,]2 | %25
 [B,,E,B,]A,/B,/ [D,,E,G,B,]2 [C,,E,B,]2 [D,,A,B,]2 | [E,,E,B,]2 [D,,E,]2 [C,,E,B,]2 [D,,A,]2 | %27
 [E,,B,]A,/B,/ [D,,E,G,B,][E,B,] [C,,C,E,B,]>G, [D,,D,A,]/[E,G,]/[D,F,] | %28
 [E,,G,B,]A,/B,/ [E,,E,]3/2E,E,/[B,,E,B,]/B,,/ G,/[G,,E,]/^G,, | %29
 [C,,C,E,G,]/E,/ z z/ G,/[D,A,] B,[G,,,G,,B,,]/[A,,,A,,C,]/ [B,,,B,,D,]/[C,,C,E,]/[D,,D,F,] | %30
 .[B,,,B,,D,F,B,]2 z2 [F,,F,A,][^C,,^C,=F,] .[F,,,F,,^F,A,]2 | %31
[K:G] [^C,,^C,^G,]/C,/ z/ [C,G,]/ G,/ z ^G,,/ [G,B,][G,,E,G,]/[^A,,F,^A,]/ [G,,G,B,]/[=A,,=A,C]/[B,,B,D] | %32
 [E,,E,B,]2 [E,,E,B,][E,,E,B,] [=F,,=F,A,]2 [F,,F,A,][F,,F,A,] | %33
 [^A,,,^A,,=F,A,]>[=A,,,=A,,] [^A,,,^A,,][C,,C,] [D,,D,^A,]3 z | %34
 ^G,2 [B,,E,A,]>[B,,E,A,] [B,,E,A,] z [B,,E,A,][B,,E,A,] | %35
 [A,,E,^G,]2 [E,,E,B,][E,,E,B,] [E,,E,B,]2 [E,,E,B,][E,,E,B,] | %36
[K:C] [A,,A,]2 [A,,A,][A,,D,F,B,] [A,,C,A,]2 [F,A,]C, | %37
 [E,B,]2 [E,B,]2 [F,,A,,A,]2 [A,,A,]/ z/ [G,B,] | %38
 C,/D,/E,/F,/ C,/D,/E,/F,/ B,/A,/G,/F,/ D,/E,/F,/G,/ | [E,F,^G,B,]2 [F,B,]2 [E,A,]2 [=G,B,]2 | %40
 A,,3/2 z/ A,,[A,,D,] [F,A,]2 A,A, | [E,,G,B,]2 B,2 [^A,,F,]2 z G, | %42
 [A,,A,]>[D,B,] [C,E,]/E,/[D,F,]/E,/ [D,G,B,]2 G,A, | [C,F,]2 [D,G,]2 [C,A,][B,,G,] [A,,E,]2 | %44
 F,,2 G,,2 A,,2 G,,2 | F,,2 G,,2 A,,2 A,B,/C/ | E2 z2 z4 | C,!ped!G,CD!ped-up! E4 | %48
!ped! G,,D,G,B, D4!ped-up! |!ped! A,,E,A,B, C4!ped-up! |!ped! E,,C,,B,,G,, C,2 B,,2!ped-up! | %51
!ped! A,,C,E,A, CA,E,C,!ped-up! |!ped! C,G,,C,D, E,2 D,2!ped-up! |!ped! B,,F,A,D F2 z2!ped-up! | %54
!>(!!ped! z8!>)!!ped-up! |[K:A]!<(! [DF]4 [E,,G,EG]2 [E,,E,G,B,EG]2!<)! | %56
 [C,A,]>[C,A,] [C,A,]2 [A,E]4 | [A,E][F,C] [G,^D]>[E,B,] [B,,F,]2 z3/2 z/ | %58
 [A,,A,]2 [C,C]2 [F,F]2 [A,A]2 | [C,,C,E,G,B,E][B,E] [B,E]3/4[B,^D]3/4[B,E]/ [B,E]3/2 z/ z2 | %60
 [D,,A,,D,F,]8 | [A,,C,E,A,]8 | [G,,B,,D,G,]8 | [F,,A,,C,]8 | [F,A,]4 A,4 | z8 | z4 A,,E,B,E | %67
 [G,F]4 z4 | z8 |[K:G] E,,2 E,,E,, [E,,B,,]2 [E,,B,,][E,,B,,] || %70
 [D,E,B,]2 [E,B,][E,B,] [C,E,B,]2 [D,F,A,B,]2 | [E,,G,B,D]2 [D,,D,F,A,]2 [C,,E,G,B,]2 [D,,F,A,D]2 | %72
 [E,,G,B,D]2 [D,,D,F,A,]2 [C,,E,G,B,]2 [D,,F,A,D]2 | %73
 [E,,G,B,D]2 [D,,D,F,A,]2 [C,,E,G,B,]2 [D,,F,A,D]2 | %74
 [E,,G,B,D]2 [D,,D,F,A,]2 [C,,E,G,B,]2 [D,,F,A,D]2 | z !fermata![E,,G,B,D]7 |] %76
V:3
 x4 | x4 | x4 | x4 | x4 |[M:4/4] x8 | x8 | x8 | x8 | x8 | x8 | x8 | x8 | x8 | x8 | x4 [Be]>d ef | %16
 g2 eg f2 d2 | e2 e/g/a/g/ [gb][eb]/[fa]/ [gb][gc'] | [fd']2 [ac'][gb] [fa]2 [fc']2 | %19
 [gb]4 [eg]>[df] [eg][fa] | [gb]2 [ce][eg] [fa]2 [df]2 | [eg]2 [df][ce] D2 [B,D][B,D] | %22
 [df][Ad][df][eg] [eg]2 f/e/d | e2 x6 || z8 | x8 | x2 [FA]2 x4 | x11/2 e/ f/e/[df] | x8 | %29
 [eg]>[df] [eg][df] [Bdg]2 d2 | x8 |[K:G] x8 | [^DGA]2 x2 [CGB]2 x2 | z8 | [B,E^G]4 x4 | %35
 x2 e/e/^d/e/ f/f/e/f/ ^g/g/f/g/ |[K:C] x5 B,/C/ D/E/F/A/ | x2 G/^F/E/D/ C/D/E/=F/ E/F/G/A/ | %38
 [ee']>[dd'] [ee'][ff'] [gg'][gg'][ff'][ee'] | x8 | x4 c'/b/a/g/ a/b/c'/d'/ | %41
 b/a/g/^f/ g/f/e/d/ e/f/g/f/ g=f | g/^f/e/d/ cd e/f/g/a/ bc' | a'2 b'/a'/g'/ z/ a' x3 | E6 x E/E/ | %45
 E4 x4 | z8 | x8 | x8 | x8 | x8 | x8 | x8 | x8 | x8 |[K:A] x8 | x8 | x8 | x8 | x8 | %60
 d/e/f/a/ d/e/f/a/ d/e/f/a/ d/e/f/a/ | f/g/a/b/ e'/b/a/g/ f/g/a/b/ e'/b/a/g/ | g8 | [CB]8 | x6 c2 | %65
 e2 d2 c3/2B3/2A | x8 | ^d2 B2 e4- | e4 f4 |[K:G] e2 d2 c4 || z8 | x8 | x8 | x8 | x8 | x8 |] %76
V:4
 x4 | x4 | x4 | x4 | x4 |[M:4/4] x8 | x8 | x8 | x8 | x8 | x8 | x8 | x8 | x8 | x8 | x8 | x8 | x8 | %18
 x8 | x8 | x8 | x8 | x8 | x8 || x8 | x8 | x8 | x8 | x8 | x8 | x8 |[K:G] x8 | x8 | x8 | x8 | x8 | %36
[K:C] E,,2 E,,E,, F,,2 F,,F,, | E,,2 E,,E,, G,,2 G,,G,, | %38
 [C,,E,,G,]2 [C,,E,,][C,,F,,] [D,,G,,]2 [C,,E,,G,,][B,,,D,,G,,] | ^G,,2 G,,G,, A,,2 =G,,2 | %40
 G,/^F,/E,/D,/ C,/E,/=F,/G,/ F,,2 F,,F,, | x4 ^A,,,2 A,,,A,,, | A,,,2 A,,,A,,, G,,2 G,,G,, | %43
 A,>A, B,/G,/A,/B,/ CB, A,2 | x8 | x5 E, x2 | x8 | .C,, x7 | .G,,, x7 | A,,,3/2 x13/2 | %50
 E,,,3/2 x13/2 | F,,,3/2 x13/2 | .C,, x7 | .B,,, x7 | x8 |[K:A] x8 | [A,,,A,,]8 | %57
 [A,,,A,,]6 [G,,,G,,]2 | [F,,,F,,]8 | z8 | x8 | x8 | x8 | C,,8 | F,,4 D,,4 | x8 | C,4 A,,4 | %67
 G,,4 x4 | x8 |[K:G] x8 || x8 | x8 | x8 | x8 | x8 | x8 |] %76
V:5
 x4 | x4 | x4 | x4 | x4 |[M:4/4] x8 | x8 | x8 | x8 | x8 | x8 | x8 | x8 | x8 | x8 | x8 | x8 | x8 | %18
 x8 | x8 | x8 | x8 | x8 | x8 || x8 | x8 | x8 | x8 | x8 | x8 | x8 |[K:G] x8 | x8 | x8 | x8 | x8 | %36
[K:C] x8 | x8 | x8 | x8 | A,,,>[D,,G,,] E,,F,, x4 | x8 | x8 | F,,2 G,,2 A,,2 x2 | x8 | x8 | x8 | %47
 C8 | G,8 | A,8 | E,8 | F,8 | (C,2 G,6) | A,4 F2 D2 | C2 B,2 A,4 |[K:A] x8 | x8 | x8 | x8 | x8 | %60
 x8 | x8 | x8 | x8 | x8 | x8 | x8 | x8 | x8 |[K:G] x8 || x8 | x8 | x8 | x8 | x8 | x8 |] %76
V:6
 x4 | x4 | x4 | x4 | x4 |[M:4/4] x8 | x8 | x8 | x8 | x8 | x8 | x8 | x8 | x8 | x8 | x8 | x8 | x8 | %18
 x8 | x8 | x8 | x8 | x8 | x8 || x8 | x8 | x8 | x8 | x8 | x8 | x8 |[K:G] x8 | x8 | x8 | x8 | x8 | %36
[K:C] x8 | x8 | x8 | x8 | x8 | x8 | x8 | x8 | x8 | x8 | x8 | x8 | x8 | x8 | x8 | x8 | x8 | x8 | %54
 x8 |[K:A] x8 | x8 | x8 | x8 | x8 | x8 | x8 | x2 b2 g2 b2 | bc'c' x5 | x8 | x8 | [G,G]8 | %67
 x4 e'>d' e'f' | =g' z e'g' f'2 d' z |[K:G] e' x7 || x8 | x8 | x8 | x8 | x8 | x8 |] %76

